svg/whatsapp.svg

<?xml version="1.0" encoding="UTF-8" standalone="no"?>
<!-- Uploaded to: SVG Repo, www.svgrepo.com, Generator: SVG Repo Mixer Tools -->

<svg
   fill="#000000"
   width="800px"
   height="800px"
   viewBox="-2 -2 24 24"
   preserveAspectRatio="xMinYMin"
   class="jam jam-whatsapp"
   version="1.1"
   id="svg2206"
   sodipodi:docname="whatsapp.svg"
   inkscape:version="1.2.2 (732a01da63, 2022-12-09)"
   xmlns:inkscape="http://www.inkscape.org/namespaces/inkscape"
   xmlns:sodipodi="http://sodipodi.sourceforge.net/DTD/sodipodi-0.dtd"
   xmlns="http://www.w3.org/2000/svg"
   xmlns:svg="http://www.w3.org/2000/svg">
  <defs
     id="defs2210" />
  <sodipodi:namedview
     id="namedview2208"
     pagecolor="#505050"
     bordercolor="#eeeeee"
     borderopacity="1"
     inkscape:showpageshadow="0"
     inkscape:pageopacity="0"
     inkscape:pagecheckerboard="0"
     inkscape:deskcolor="#505050"
     showgrid="false"
     inkscape:current-layer="svg2206" />
  <path
     d="M9.516.012C4.206.262.017 4.652.033 9.929a9.798 9.798 0 0 0 1.085 4.465L.06 19.495a.387.387 0 0 0 .47.453l5.034-1.184a9.981 9.981 0 0 0 4.284 1.032c5.427.083 9.951-4.195 10.12-9.58C20.15 4.441 15.351-.265 9.516.011zm6.007 15.367a7.784 7.784 0 0 1-5.52 2.27 7.77 7.77 0 0 1-3.474-.808l-.701-.347-3.087.726.65-3.131-.346-.672A7.62 7.62 0 0 1 2.197 9.9c0-2.07.812-4.017 2.286-5.48a7.85 7.85 0 0 1 5.52-2.271c2.086 0 4.046.806 5.52 2.27a7.672 7.672 0 0 1 2.287 5.48c0 2.052-.825 4.03-2.287 5.481z"
     id="path2202"
     style="fill:#eeeeee;fill-opacity:1;stroke:none;stroke-opacity:1" />
  <path
     d="M14.842 12.045l-1.931-.55a.723.723 0 0 0-.713.186l-.472.478a.707.707 0 0 1-.765.16c-.913-.367-2.835-2.063-3.326-2.912a.694.694 0 0 1 .056-.774l.412-.53a.71.71 0 0 0 .089-.726L7.38 5.553a.723.723 0 0 0-1.125-.256c-.539.453-1.179 1.14-1.256 1.903-.137 1.343.443 3.036 2.637 5.07 2.535 2.349 4.566 2.66 5.887 2.341.75-.18 1.35-.903 1.727-1.494a.713.713 0 0 0-.408-1.072z"
     id="path2204"
     style="fill:#eeeeee;fill-opacity:1;stroke:none;stroke-opacity:1" />
</svg>

<?xml version="1.0" encoding="UTF-8" standalone="no"?>
<!-- Uploaded to: SVG Repo, www.svgrepo.com, Generator: SVG Repo Mixer Tools -->

<svg
   fill="#000000"
   width="500"
   height="500"
   viewBox="-2 -2 15 15"
   preserveAspectRatio="xMinYMin"
   class="jam jam-whatsapp"
   version="1.1"
   id="svg2206"
   sodipodi:docname="whatsapp.svg"
   inkscape:version="1.2.2 (732a01da63, 2022-12-09)"
   xmlns:inkscape="http://www.inkscape.org/namespaces/inkscape"
   xmlns:sodipodi="http://sodipodi.sourceforge.net/DTD/sodipodi-0.dtd"
   xmlns="http://www.w3.org/2000/svg"
   xmlns:svg="http://www.w3.org/2000/svg">
  <defs
     id="defs2210" />
  <sodipodi:namedview
     id="namedview2208"
     pagecolor="#505050"
     bordercolor="#eeeeee"
     borderopacity="1"
     inkscape:showpageshadow="0"
     inkscape:pageopacity="0"
     inkscape:pagecheckerboard="0"
     inkscape:deskcolor="#505050"
     showgrid="false"
     inkscape:current-layer="svg2206" />
  <g
     id="g9"
     transform="matrix(0.7522546,0,0,0.75152827,-2.02479,-1.999585)">
    <path
       d="m 9.516,0.012 c -5.31,0.25 -9.499,4.64 -9.483,9.917 a 9.798,9.798 0 0 0 1.085,4.465 L 0.06,19.495 a 0.387,0.387 0 0 0 0.47,0.453 l 5.034,-1.184 a 9.981,9.981 0 0 0 4.284,1.032 c 5.427,0.083 9.951,-4.195 10.12,-9.58 C 20.15,4.441 15.351,-0.265 9.516,0.011 Z m 6.007,15.367 a 7.784,7.784 0 0 1 -5.52,2.27 7.77,7.77 0 0 1 -3.474,-0.808 L 5.828,16.494 2.741,17.22 3.391,14.089 3.045,13.417 A 7.62,7.62 0 0 1 2.197,9.9 c 0,-2.07 0.812,-4.017 2.286,-5.48 a 7.85,7.85 0 0 1 5.52,-2.271 c 2.086,0 4.046,0.806 5.52,2.27 a 7.672,7.672 0 0 1 2.287,5.48 c 0,2.052 -0.825,4.03 -2.287,5.481 z"
       id="path2202"
       style="fill:#eeeeee;fill-opacity:1;stroke:none;stroke-opacity:1" />
    <path
       d="m 14.842,12.045 -1.931,-0.55 a 0.723,0.723 0 0 0 -0.713,0.186 l -0.472,0.478 a 0.707,0.707 0 0 1 -0.765,0.16 C 10.048,11.952 8.126,10.256 7.635,9.407 A 0.694,0.694 0 0 1 7.691,8.633 L 8.103,8.103 A 0.71,0.71 0 0 0 8.192,7.377 L 7.38,5.553 A 0.723,0.723 0 0 0 6.255,5.297 C 5.716,5.75 5.076,6.437 4.999,7.2 c -0.137,1.343 0.443,3.036 2.637,5.07 2.535,2.349 4.566,2.66 5.887,2.341 0.75,-0.18 1.35,-0.903 1.727,-1.494 a 0.713,0.713 0 0 0 -0.408,-1.072 z"
       id="path2204"
       style="fill:#eeeeee;fill-opacity:1;stroke:none;stroke-opacity:1" />
  </g>
</svg>
